X:735
T:Blackthorn Stick, The
R:reel
Z:Transcribed by Dave Marshall
M:C|
K:D
|: d~F3 AFEF | Dddc ~B3c | d~F3 AFEF | GBAF D4 :|
|: d2fd (3efg ec | A2cA eAcA | defg a4 | (3fga eg fdd2 :|
